src/raw/sauna/icon_24.svg

<svg width="24" height="24" viewBox="0 0 24 24" fill="none" xmlns="http://www.w3.org/2000/svg">
<path d="M1.04395 7.97101L11.1867 1.24497C11.4276 1.08524 11.7107 1 12.0002 1C12.2898 1 12.5728 1.08524 12.8137 1.24497L22.9565 7.97101" stroke="#71717A" stroke-width="1.5" stroke-linecap="round" stroke-linejoin="round"/>
<path d="M8.75 18.377C9.2414 17.7681 9.52927 17.0202 9.573 16.239C9.573 14.904 8.75 13.568 8.75 12.231C8.79272 11.4575 9.0755 10.7168 9.5587 10.1118" stroke="#71717A" stroke-width="1.5" stroke-linecap="round" stroke-linejoin="round"/>
<path d="M14 18.377C14.4914 17.7681 14.7793 17.0203 14.823 16.239C14.823 14.904 14 13.568 14 12.231C14.0426 11.4604 14.3234 10.7222 14.8034 10.1185" stroke="#71717A" stroke-width="1.5" stroke-linecap="round" stroke-linejoin="round"/>
<path d="M3.5 23H2.75C2.75 23.4142 3.08579 23.75 3.5 23.75V23ZM20.5 23V23.75C20.9142 23.75 21.25 23.4142 21.25 23H20.5ZM21.25 6.5C21.25 6.08579 20.9142 5.75 20.5 5.75C20.0858 5.75 19.75 6.08579 19.75 6.5H21.25ZM2.75 6.5V23H4.25V6.5H2.75ZM3.5 23.75H20.5V22.25H3.5V23.75ZM21.25 23V6.5H19.75V23H21.25Z" fill="#71717A"/>
</svg>

<svg xmlns="http://www.w3.org/2000/svg" width="24" height="24" fill="none" viewBox="0 0 24 24">
  <path stroke="#3F3F46" stroke-linecap="round" stroke-linejoin="round" stroke-width="1.5"
    d="m1.025 7.983 10.161-6.738a1.472 1.472 0 0 1 1.627 0l10.161 6.738M8.75 18.377c.491-.609.78-1.357.823-2.138 0-1.335-.823-2.671-.823-4.008a3.725 3.725 0 0 1 .798-2.105M14 18.377c.491-.609.78-1.357.823-2.138 0-1.335-.823-2.671-.823-4.008.042-.766.32-1.5.794-2.1" />
  <path fill="#3F3F46"
    d="M3.5 23h-.75c0 .414.336.75.75.75V23Zm17 0v.75a.75.75 0 0 0 .75-.75h-.75Zm.75-16.5a.75.75 0 0 0-1.5 0h1.5Zm-18.5 0V23h1.5V6.5h-1.5Zm.75 17.25h17v-1.5h-17v1.5ZM21.25 23V6.5h-1.5V23h1.5Z" />
</svg>
